X: 35310
T: Rose Tree, The
R: polka
M: 2/4
K: Dmajor
f/e/|:dB AF|A>B AB|dc/d/ ed/e/|fe e/g/f/e/|
dB AF|A>B AB|dc/d/ ed/e/|1 fd df/e/:|2 fd de||
|:f>e fg|a2 gf|eb ba|be e/g/f/e/|
dB AF|A2 AB|dc/d/ ed/e/|1 fd de:|2 fd df/e/||

